X: 11885
T: Emma
R: waltz
M: 3/4
K: Aminor
|:c Ac|e2- ef ec|A2 cA cd|e2 ef ec|A2- Ac BA|
BE ^GB EG|e2- ed cB|1 A2 AB cd|e3:|2 A2 Ac B^G|A3||
|:A ce|a2- a_b a^g|a/b/a g/a/g f2|e2- ef e^d|e/f/e d/e/d c2|
B2 ^GB EG|e2 ed cB|1 A2- AB cd|e3:|2 A2 Ac B^G|A3||

